X: 427
T: Yuanyuan liaojian nashi shui
%%abc-version 2.0
%%abcx-abcm2ps-target-version 5.9.1 (29 Sep 2008)
%%abc-creator hum2abc beta
%%abcx-conversion-date 2013/10/02 07:52:30
%%abc-edited-by Helmut Schaffrath
%%humdrum-veritas 3404966623
%%humdrum-veritas-data 1805347217
%%continueall 1
%%barnumbers 0
L: 1/8
M: 2/4
K: Ab
f'> e' c' c' [I:setbarnb 1]| 
c' b a f | 
bb2a | 
c4 | 
f'> e' c' c' | 
c' b a e | 
e ba2 | 
f4 |]  



